X:1
T:Canton Hornpipe
M:2/4
L:1/8
R:Hornpipe
B:Elias Howe – Musician’s Omnibus Nos. 6 & 7 (Boston, 1880-1882, p. 643)
B:  http://ks4.imslp.net/files/imglnks/usimg/c/c7/IMSLP601433-PMLP562790-ONeill_Rare_Medium_M40_M8_v6.7_text.pdf
Z:AK/Fiddler’s Companion
K:Bb
B,|B,/C/D/E/ F/B/A/B/|B,/D/E/F/ G/c/=B/c/|c/G/G/A/ B/c/d/e/|f/g/f/d/ e/c/d/B/|
B,/C/D/E/ F/B/A/B/|C/D/E/F G/c/=B/c/|c/G/G/A/ B/c/d/e/|f/d/e/c/ d/B/B:|
|:F|B/c/d/e/ f/g/f/d/|c/d/e/f/ g/b/a/b/|b/a/g/f/ g/f/d/f/|e/d/c/B/ A/c/F/c/|
B/c/d/e/ f/g/f/d/|c/d/e/f/ g/b/a/b/|b/a/g/f/ g/f/d/f/|g/e/c/A/ B:|]

